Numix/16/status/indicator-keyboard-Fr-3.svg

<?xml version="1.0" encoding="UTF-8" standalone="no"?>
<svg
   xmlns:dc="http://purl.org/dc/elements/1.1/"
   xmlns:cc="http://creativecommons.org/ns#"
   xmlns:rdf="http://www.w3.org/1999/02/22-rdf-syntax-ns#"
   xmlns:svg="http://www.w3.org/2000/svg"
   xmlns="http://www.w3.org/2000/svg"
   xmlns:sodipodi="http://sodipodi.sourceforge.net/DTD/sodipodi-0.dtd"
   xmlns:inkscape="http://www.inkscape.org/namespaces/inkscape"
   viewBox="0 0 16 16"
   id="svg2"
   version="1.1"
   inkscape:version="0.91 r13725"
   sodipodi:docname="indicator-keyboard-Fr-3.svg">
  <metadata
     id="metadata14">
    <rdf:RDF>
      <cc:Work
         rdf:about="">
        <dc:format>image/svg+xml</dc:format>
        <dc:type
           rdf:resource="http://purl.org/dc/dcmitype/StillImage" />
      </cc:Work>
    </rdf:RDF>
  </metadata>
  <defs
     id="defs12" />
  <sodipodi:namedview
     pagecolor="#ffffff"
     bordercolor="#666666"
     borderopacity="1"
     objecttolerance="10"
     gridtolerance="10"
     guidetolerance="10"
     inkscape:pageopacity="0"
     inkscape:pageshadow="2"
     inkscape:window-width="640"
     inkscape:window-height="480"
     id="namedview10"
     showgrid="false"
     inkscape:zoom="14.75"
     inkscape:cx="8"
     inkscape:cy="8"
     inkscape:window-x="65"
     inkscape:window-y="24"
     inkscape:window-maximized="0"
     inkscape:current-layer="svg2" />
  <path
     style="fill:#ececec;fill-opacity:1"
     d="M 1.5996094 0 C 0.71320937 2.9605947e-16 0 0.71320937 0 1.5996094 L 0 14.400391 C 2.9605947e-16 15.286791 0.71320937 16 1.5996094 16 L 14.400391 16 C 15.286791 16 16 15.286791 16 14.400391 L 16 1.5996094 C 16 0.71320937 15.286791 0 14.400391 0 L 1.5996094 0 z M 3.0585938 4.859375 L 6.6132812 4.859375 L 6.6132812 5.390625 L 3.6699219 5.390625 L 3.6699219 7.5859375 L 6.2792969 7.5859375 L 6.2792969 8.1171875 L 3.6699219 8.1171875 L 3.6699219 11.095703 L 3.0585938 11.095703 L 3.0585938 4.859375 z M 9.1230469 6.3535156 C 9.3150469 6.3535156 9.4960625 6.3684375 9.6640625 6.3984375 C 9.8380625 6.4284375 9.9574377 6.4582813 10.023438 6.4882812 L 9.90625 6.9921875 C 9.85825 6.9681875 9.759375 6.9439219 9.609375 6.9199219 C 9.465375 6.8899219 9.2732031 6.875 9.0332031 6.875 C 8.7812031 6.875 8.577875 6.8936875 8.421875 6.9296875 C 8.271875 6.9656875 8.173 6.9955312 8.125 7.0195312 L 8.125 11.095703 L 7.5390625 11.095703 L 7.5390625 6.6582031 C 7.6890625 6.5922031 7.8961563 6.5269375 8.1601562 6.4609375 C 8.4241562 6.3889375 8.7450469 6.3535156 9.1230469 6.3535156 z M 11.574219 8.7539062 C 11.777019 8.7539062 11.94945 8.7793781 12.09375 8.8300781 C 12.24195 8.8807781 12.365391 8.953275 12.462891 9.046875 C 12.560391 9.136575 12.632888 9.2463 12.679688 9.375 C 12.726487 9.4997999 12.75 9.6350031 12.75 9.7832031 C 12.75 10.021103 12.685341 10.217041 12.556641 10.369141 C 12.431841 10.517341 12.269213 10.625106 12.070312 10.691406 C 12.179513 10.718706 12.285319 10.759859 12.386719 10.818359 C 12.492019 10.872959 12.586069 10.945456 12.667969 11.035156 C 12.749869 11.120956 12.816487 11.226762 12.867188 11.351562 C 12.917887 11.476362 12.941406 11.623316 12.941406 11.791016 C 12.941406 11.962616 12.912009 12.119372 12.849609 12.263672 C 12.791109 12.407972 12.700978 12.535331 12.580078 12.644531 C 12.463078 12.749831 12.312206 12.834084 12.128906 12.896484 C 11.945606 12.954984 11.732028 12.984375 11.486328 12.984375 C 11.357628 12.984375 11.238106 12.974578 11.128906 12.955078 C 11.023606 12.939478 10.929556 12.919884 10.847656 12.896484 C 10.765756 12.873084 10.695219 12.849572 10.636719 12.826172 C 10.582119 12.802772 10.540972 12.783178 10.513672 12.767578 L 10.613281 12.427734 C 10.636681 12.443334 10.675869 12.462928 10.730469 12.486328 C 10.785069 12.509728 10.849728 12.533241 10.923828 12.556641 C 11.001828 12.576141 11.088041 12.593775 11.181641 12.609375 C 11.279141 12.624975 11.384947 12.632813 11.498047 12.632812 C 11.868547 12.632812 12.133069 12.556397 12.292969 12.404297 C 12.452869 12.248297 12.533203 12.040597 12.533203 11.779297 C 12.533203 11.607697 12.499894 11.464663 12.433594 11.351562 C 12.371194 11.238462 12.283022 11.148331 12.169922 11.082031 C 12.060722 11.011831 11.931403 10.962847 11.783203 10.935547 C 11.638903 10.904347 11.486066 10.888672 11.322266 10.888672 L 11.263672 10.888672 L 11.263672 10.574219 L 11.398438 10.574219 C 11.503737 10.574219 11.60955 10.564422 11.71875 10.544922 C 11.83185 10.521522 11.933738 10.480375 12.023438 10.421875 C 12.117037 10.363375 12.193453 10.285 12.251953 10.1875 C 12.314353 10.09 12.345703 9.9646001 12.345703 9.8125 C 12.345703 9.6838 12.32415 9.5760281 12.28125 9.4863281 C 12.23835 9.3927281 12.179569 9.3182719 12.105469 9.2636719 C 12.035269 9.2090719 11.951016 9.1698844 11.853516 9.1464844 C 11.759916 9.1191844 11.661941 9.1054687 11.556641 9.1054688 C 11.346041 9.1054688 11.181453 9.1348594 11.064453 9.1933594 C 10.947453 9.2518594 10.851444 9.3067219 10.777344 9.3574219 L 10.613281 9.0585938 C 10.652281 9.0312937 10.701266 8.9999438 10.759766 8.9648438 C 10.822166 8.9297438 10.894662 8.8964344 10.976562 8.8652344 C 11.058463 8.8340344 11.148594 8.8085625 11.246094 8.7890625 C 11.347494 8.7656625 11.457219 8.7539062 11.574219 8.7539062 z "
     id="path4" />
</svg>

<svg xmlns="http://www.w3.org/2000/svg" viewBox="0 0 16 16">
 <path d="m 1.6 0 c -0.886 0 -1.6 0.713 -1.6 1.6 l 0 12.801 c 0 0.886 0.713 1.6 1.6 1.6 l 12.801 0 c 0.886 0 1.6 -0.713 1.6 -1.6 l 0 -12.801 c 0 -0.886 -0.713 -1.6 -1.6 -1.6 l -12.801 0 z m 1.459 4.859 l 3.555 0 l 0 0.531 l -2.943 0 l 0 2.195 l 2.609 0 l 0 0.531 l -2.609 0 l 0 2.979 l -0.611 0 l 0 -6.236 z m 6.06 1.494 c 0.192 0 0.373 0.015 0.541 0.045 c 0.174 0.03 0.293 0.06 0.359 0.09 l -0.117 0.504 c -0.048 -0.024 -0.147 -0.048 -0.297 -0.072 c -0.144 -0.03 -0.336 -0.045 -0.576 -0.045 c -0.252 0 -0.455 0.019 -0.611 0.055 c -0.15 0.036 -0.249 0.066 -0.297 0.09 l 0 4.076 l -0.586 0 l 0 -4.437 c 0.15 -0.066 0.357 -0.131 0.621 -0.197 c 0.264 -0.072 0.585 -0.107 0.963 -0.107 z m 2.451 2.4 c 0.203 0 0.375 0.025 0.52 0.076 c 0.148 0.051 0.272 0.123 0.369 0.217 c 0.097 0.09 0.17 0.199 0.217 0.328 c 0.047 0.125 0.07 0.26 0.07 0.408 c 0 0.238 -0.065 0.434 -0.193 0.586 c -0.125 0.148 -0.287 0.256 -0.486 0.322 c 0.109 0.027 0.215 0.068 0.316 0.127 c 0.105 0.055 0.199 0.127 0.281 0.217 c 0.082 0.086 0.149 0.192 0.199 0.316 c 0.051 0.125 0.074 0.272 0.074 0.439 c 0 0.172 -0.029 0.328 -0.092 0.473 c -0.058 0.144 -0.149 0.272 -0.27 0.381 c -0.117 0.105 -0.268 0.19 -0.451 0.252 c -0.183 0.059 -0.397 0.088 -0.643 0.088 c -0.129 0 -0.248 -0.01 -0.357 -0.029 c -0.105 -0.016 -0.199 -0.035 -0.281 -0.059 c -0.082 -0.023 -0.152 -0.047 -0.211 -0.07 c -0.055 -0.023 -0.096 -0.043 -0.123 -0.059 l 0.1 -0.34 c 0.023 0.016 0.063 0.035 0.117 0.059 c 0.055 0.023 0.119 0.047 0.193 0.07 c 0.078 0.019 0.164 0.037 0.258 0.053 c 0.097 0.016 0.203 0.023 0.316 0.023 c 0.37 0 0.635 -0.076 0.795 -0.229 c 0.16 -0.156 0.24 -0.364 0.24 -0.625 c 0 -0.172 -0.033 -0.315 -0.1 -0.428 c -0.062 -0.113 -0.151 -0.203 -0.264 -0.27 c -0.109 -0.07 -0.239 -0.119 -0.387 -0.146 c -0.144 -0.031 -0.297 -0.047 -0.461 -0.047 l -0.059 0 l 0 -0.314 l 0.135 0 c 0.105 0 0.211 -0.01 0.32 -0.029 c 0.113 -0.023 0.215 -0.065 0.305 -0.123 c 0.094 -0.059 0.17 -0.137 0.229 -0.234 c 0.062 -0.098 0.094 -0.223 0.094 -0.375 c 0 -0.129 -0.022 -0.236 -0.064 -0.326 c -0.043 -0.094 -0.102 -0.168 -0.176 -0.223 c -0.07 -0.055 -0.154 -0.094 -0.252 -0.117 c -0.094 -0.027 -0.192 -0.041 -0.297 -0.041 c -0.211 0 -0.375 0.029 -0.492 0.088 c -0.117 0.059 -0.213 0.113 -0.287 0.164 l -0.164 -0.299 c 0.039 -0.027 0.088 -0.059 0.146 -0.094 c 0.062 -0.035 0.135 -0.068 0.217 -0.1 c 0.082 -0.031 0.172 -0.057 0.27 -0.076 c 0.101 -0.023 0.211 -0.035 0.328 -0.035 z" style="fill:#ececec;fill-opacity:1"/>
</svg>
